src/lib/packages/icons/src/assets/line/home-shield.svg

<svg width="24" height="24" viewBox="0 0 24 24" fill="none" xmlns="http://www.w3.org/2000/svg">
<path d="M18 21.75H6C3.582 21.75 2.25 20.418 2.25 18V11.65C2.25 9.52704 2.83599 8.93401 3.79199 8.14101L9.91199 3.01003C11.121 1.99503 12.879 1.99503 14.088 3.01003L20.208 8.14101C21.164 8.93401 21.75 9.52804 21.75 11.65V18C21.75 20.418 20.418 21.75 18 21.75ZM12 3.75002C11.601 3.75002 11.201 3.88705 10.875 4.16005L4.74902 9.29604C4.00202 9.91604 3.75 10.125 3.75 11.651V18.001C3.75 19.578 4.423 20.251 6 20.251H18C19.577 20.251 20.25 19.578 20.25 18.001V11.651C20.25 10.125 19.998 9.91604 19.251 9.29604L13.125 4.16005C12.799 3.88605 12.399 3.75002 12 3.75002ZM12 18.25C11.919 18.25 11.838 18.237 11.76 18.21C9.82201 17.554 7.75 15.8551 7.75 13.0551V10.833C7.75 10.499 7.97197 10.2051 8.29297 10.1121C10.076 9.60008 10.9069 9.213 11.6689 8.829C11.8839 8.722 12.136 8.72307 12.349 8.83107C13.103 9.21707 13.9251 9.60002 15.6851 10.047C16.0181 10.131 16.25 10.4311 16.25 10.7741V13.054C16.25 15.854 14.179 17.553 12.24 18.209C12.162 18.237 12.081 18.25 12 18.25ZM9.25 11.3941V13.056C9.25 15.352 11.208 16.379 12 16.7C12.792 16.379 14.75 15.352 14.75 13.056V11.353C13.554 11.022 12.76 10.706 12.005 10.338C11.238 10.708 10.459 11.0261 9.25 11.3941Z" fill="currentColor"/>
</svg>

<svg xmlns="http://www.w3.org/2000/svg" width="24" height="24" fill="none"><path fill="currentColor" d="M18 21.75H6c-2.418 0-3.75-1.332-3.75-3.75v-6.35c0-2.123.586-2.716 1.542-3.509l6.12-5.131a3.244 3.244 0 0 1 4.176 0l6.12 5.131c.956.793 1.542 1.387 1.542 3.509V18c0 2.418-1.332 3.75-3.75 3.75Zm-6-18a1.75 1.75 0 0 0-1.125.41L4.749 9.296c-.747.62-.999.829-.999 2.355v6.35c0 1.577.673 2.25 2.25 2.25h12c1.577 0 2.25-.673 2.25-2.25v-6.35c0-1.526-.252-1.735-.999-2.355L13.125 4.16A1.745 1.745 0 0 0 12 3.75Zm0 14.5a.733.733 0 0 1-.24-.04c-1.938-.656-4.01-2.355-4.01-5.155v-2.222a.75.75 0 0 1 .543-.72c1.783-.513 2.614-.9 3.376-1.284a.757.757 0 0 1 .68.002c.754.386 1.576.769 3.336 1.216a.749.749 0 0 1 .565.727v2.28c0 2.8-2.071 4.499-4.01 5.155a.708.708 0 0 1-.24.041Zm-2.75-6.856v1.662c0 2.296 1.958 3.323 2.75 3.644.792-.321 2.75-1.348 2.75-3.644v-1.703c-1.196-.331-1.99-.647-2.745-1.015-.767.37-1.546.688-2.755 1.056Z"/></svg>
